teeny/outline/line.svg

<svg width="15" height="15" viewBox="0 0 15 15" fill="none" xmlns="http://www.w3.org/2000/svg">
<path d="M2 2L13 13M1.5 2.5C0.947715 2.5 0.5 2.05228 0.5 1.5C0.5 0.947715 0.947715 0.5 1.5 0.5C2.05228 0.5 2.5 0.947715 2.5 1.5C2.5 2.05228 2.05228 2.5 1.5 2.5ZM13.5 14.5C12.9477 14.5 12.5 14.0523 12.5 13.5C12.5 12.9477 12.9477 12.5 13.5 12.5C14.0523 12.5 14.5 12.9477 14.5 13.5C14.5 14.0523 14.0523 14.5 13.5 14.5Z" stroke="black"/>
</svg>

<svg viewBox="0 0 15 15" xmlns="http://www.w3.org/2000/svg"><path fill="none" stroke="#000" d="M2 2l11 11M1.5 2.5c-.56 0-1-.45-1-1 0-.56.44-1 1-1 .55 0 1 .44 1 1 0 .55-.45 1-1 1Zm12 12c-.56 0-1-.45-1-1 0-.56.44-1 1-1 .55 0 1 .44 1 1 0 .55-.45 1-1 1Z"/></svg>
